X: 11628
T: Éigse An Spidéil
R: barndance
M: 4/4
K: Gmajor
K: Gmaj
|:G2 (3GGG G2G2|GABc dBGB|A2 (3AAA A2d2|(3efg ab gedB|
G2 (3GGG G2G2|GABc dBGd|efge Bege|fgab gedB:|
|:c4 B3G|(3ABc BA GEDE|c4 B3d|efge dcBd|
c4 B3G|(3ABc BA GEDE|EFGE B,EGE|1 FGAF GBdB:|2 FGAB c2 BA||

